assets/svgs/i-like.svg

<svg fill="none" height="22" viewBox="0 0 24 22" width="24" xmlns="http://www.w3.org/2000/svg"><path d="m11.9282 3.88643c.9687-2.28757 3.1815-3.88595173 5.7554-3.88595173 3.4671 0 5.9641 2.95523173 6.278 6.47721173 0 0 .1694.87428-.2035 2.44827-.5079 2.14364-1.7017 4.04804-3.3111 5.50154l-8.5188 7.5729-8.37517-7.5734c-1.60947-1.453-2.803254-3.3579-3.311104-5.50152-.372968-1.57399-.2035242-2.44826-.2035242-2.44826.3139262-3.52199 2.8109382-6.47722 6.2780482-6.47722 2.57429 0 4.64315 1.59886 5.61175 3.88643z" fill="#727c8e"/></svg>

<svg xmlns="http://www.w3.org/2000/svg" xmlns:xlink="http://www.w3.org/1999/xlink" fill="none" version="1.1" width="24" height="22.00048828125" viewBox="0 0 24 22.00048828125"><g><g><path d="M11.9282,3.88643C12.8969,1.59886,15.1097,0.00047827,17.6836,0.00047827C21.1507,0.00047827,23.6477,2.95571,23.9616,6.47769C23.9616,6.47769,24.131,7.35197,23.7581,8.92596C23.2502,11.0696,22.0564,12.974,20.447,14.4275C20.447,14.4275,11.9282,22.0004,11.9282,22.0004C11.9282,22.0004,3.55303,14.427,3.55303,14.427C1.94356,12.974,0.749776,11.0691,0.241926,8.92548C-0.131042,7.35149,0.0384018,6.47722,0.0384018,6.47722C0.352328,2.95523,2.84934,0,6.31645,0C8.89074,0,10.9596,1.59886,11.9282,3.88643Z" fill="#727C8E" fill-opacity="1"/></g></g></svg>
